X:1
T:Title
%%score ( 1 2 ) ( 3 4 ) ( 5 6 )
L:1/8
Q:1/4=121
M:2/4
K:A
V:1 treble nm="Picked Bass, Soprano Voice"
V:2 treble 
V:3 bass nm="Picked Bass, Tenor Voice"
V:4 bass 
V:5 bass nm="Picked Bass, Baritone Voice"
V:6 bass 
V:1
 z4 | A2 .E2 | E2 AB | cd .e2 | ec .A2 | AG F2- | F.E E2 | FG A2- | A2 z2 | c2 B2 | A2 .B2 | %11
 B2 .A2 | A2 E2- | E.A A2- | AB cB | A2 B2- | B2 z2 | A2 .E2 | .E2 AB | cd .e2 | ec A2 | AG F2- | %22
 F.E z2 | FG A2- | A4 |] %25
V:2
 x4 | x4 | x4 | x4 | x4 | x4 | x4 | x4 | x4 | x4 | x4 | x4 | x4 | x4 | x4 | x4 | x4 | x4 | x4 | %19
 x4 | x4 | x4 | z2 E2- | E2 z2 | x4 |] %25
V:3
 z4 | z z/ F,/- [F,A,]2 | A,4 | (3F,2 A,2 .B,2 | B,F, A,2 | A,B, C2- | CA, B,A, | F,4 | z4 | %9
 A,2 B,2 | C2 .E2 | E2 D2 | C2 B,2- | B,D C2- | C[K:bass]B, A,B, | C2 B,2- | B,2 z2 | %17
 (3:2:4E,2 F, z .A,2 | A,2 .F,2 | F,A, .B,2 | B,F, A,2 | A,B, C2 | z A, B,A, | F,4 | z4 |] %25
V:4
 x4 | E,2 z2 | z2 F,-[E,F,] | x4 | x4 | x4 | x4 | z2 E,2- | E,2 z2 | x4 | x4 | x4 | x4 | x4 | %14
 x[K:bass] x3 | x4 | x4 | x4 | z2 z E,- | E,2 z2 | x4 | x4 | x4 | z2 E,2- | E,4 |] %25
V:5
 z4 | z B,, C,2 | E,2 A,2 | A,2 E,2 | E,C, A,,2 | E,2 A,2- | A,A, E,2 | C,2 A,,2- | A,,2 z2 | %9
 A,2 E,2 | F,2 .E,2 | E,2 F,2 | F,2 E,2- | E,.F, F,2- | F,E, A,G, | F,2 E,2- | E,2 z2 | %17
 (3:2:2A,,2 B,, C,2 | z2 A,2 | A,2 E,2 | E,C, A,,2 | E,2 A,2 | z A, E,2 | C,2 A,,2- | A,,2 z2 |] %25
V:6
 x4 | A,,2 z2 | x4 | x4 | x4 | x4 | x4 | x4 | x4 | x4 | x4 | x4 | x4 | x4 | x4 | x4 | x4 | x4 | %18
 E,4 | x4 | x4 | x4 | x4 | x4 | x4 |] %25

